!!!COM: Bach, Johann Sebastian
!!!CDT: 1685/3/-1750/7/28
!!!OPR@@DE: Das wohltemperierte Klavier
!!!OPR@EN: The Well-Tempered Clavier
!!!OTL: The Well-Tempered Clavier, Book 1, Fugue 15 in G major
!!!SCT: BWV 860b
!!!parts: 3
!!!RNB: The texture increases to five voices in the final three measures.
**kern	**kern	**kern
*staff2	*staff1	*staff1
*clefF4	*clefG2	*clefG2
*k[f#]	*k[f#]	*k[f#]
*M6/8	*M6/8	*M6/8
*G:	*G:	*G:
*MM102	*MM102	*MM102
=1	=1	=1
2.r	2.r	8gL
.	.	16a
.	.	16g
.	.	16f#
.	.	16gJ
.	.	8aL
.	.	16b
.	.	16a
.	.	16g
.	.	16aJ
=2	=2	=2
2.r	2.r	8bL
.	.	8a
.	.	8gJ
.	.	8d
.	.	4cc
=3	=3	=3
2.r	2.r	8bL
.	.	8a
.	.	8gJ
.	.	8f#
.	.	4ee
=4	=4	=4
2.r	2.r	8ddL
.	.	16ee
.	.	16dd
.	.	16cc
.	.	16bJ
.	.	8aL
.	.	16cc
.	.	16b
.	.	16a
.	.	16gJ
=5	=5	=5
2.r	8dL	8f#L
.	16e	8g
.	16d	.
.	16c#	8aJ
.	16dJ	.
.	8eL	8gL
.	16f#	8a
.	16e	.
.	16d	8bJ
.	16eJ	.
=6	=6	=6
2.r	8f#L	8aL
.	8e	16b
.	.	16cc#
.	8dJ	16dd
.	.	16bJ
.	8A	16cc#L
.	.	16b
.	4g	16cc#
.	.	16dd
.	.	16ee
.	.	16cc#J
=7	=7	=7
2.r	8f#L	16ddL
.	.	16cc#
.	8e	16dd
.	.	16ee
.	8dJ	16ff#
.	.	16ddJ
.	8c#	16eeL
.	.	16dd
.	4b	16ee
.	.	16ff#
.	.	16gg
.	.	16eeJ
=8	=8	=8
2.r	8aL	8ff#L
.	16b	16gg
.	16a	16ff#
.	16g	16ee
.	16f#J	16ddJ
.	8eL	[4.gg
.	16g	.
.	16f#	.
.	16e	.
.	16dJ	.
=9	=9	=9
2.r	8c#L	16gg]L
.	.	16ff#
.	8g	16ee
.	.	16gg
.	8f#J	16dd
.	.	16ggJ
.	8eL	16cc#L
.	.	16gg
.	8d	16b
.	.	16gg
.	8c#J	16a
.	.	16ggJ
=10	=10	=10
2.r	16dL	8ff#L
.	16e	.
.	16f#	8dd
.	16d	.
.	16g	8eeJ
.	16dJ	.
.	16aL	8ff#L
.	16d	.
.	16b	8gg
.	16d	.
.	16ccn	[8aaJ
.	16dJ	.
=11	=11	=11
8GL	4.b	8aa]L
16A	.	8dd
16G	.	.
16F#	.	[8ggJ
16GJ	.	.
8AL	[4.cc	8gg]L
16B	.	8ff#
16A	.	.
16G	.	8eeJ
16AJ	.	.
=12	=12	=12
8BL	8cc]L	8ddL
8A	8f#	8cc
8GJ	[8gJ	8bJ
8D	8g]L	4a
4c	16f#	.
.	16g	.
.	16a	8r
.	16f#J	.
=13	=13	=13
8BL	16gL	8r
.	16f#	.
8A	16g	8r
.	16a	.
8GJ	16b	[8dd
.	16gJ	.
8F#	16aL	8dd]L
.	16g	.
4e	16a	8cc
.	16b	.
.	16cc	[8aaJ
.	16aJ	.
=14	=14	=14
8dL	8bL	8aa]
16e	16cc	[4gg
16d	16b	.
16c	16a	.
16BJ	16gJ	.
8AL	[4.cc	8gg]L
16c	.	16aa
16B	.	16gg
16A	.	16ff#
16GJ	.	16eeJ
=15	=15	=15
4F#	16cc]L	[2.dd
.	16b	.
.	16a	.
.	16cc	.
8E	16g	.
.	16ccJ	.
16DL	16f#L	.
16E	16cc	.
16D	16e	.
16C	16cc	.
16BB	16d	.
16AAJ	16ccJ	.
=16	=16	=16
16GGL	8bL	8dd]L
16AA	.	.
16BB	8fn	8dd
16GG	.	.
16C	8eJ	8ccJ
16GGJ	.	.
16DL	8dL	8bL
16GG	.	.
16E	8c	8a
16GG	.	.
16Fn	8BJ	8gJ
16GGJ	.	.
=17	=17	=17
16EL	8r	16ccL
16D	.	16ddJ
16C	8r	[4ee
16E	.	.
16BB	8g	.
16EJ	.	.
16AAL	[4.f#	16ee]L
16E	.	16dd
16GG	.	16cc
16E	.	16b
16FF#	.	16a
16EJ	.	16ccJ
=18	=18	=18
16DL	4f#]	16bL
16C	.	16ccJ
16BB	.	[4dd
16D	.	.
16AA	8f#	.
16DJ	.	.
16GGL	[4.e	16dd]L
16D	.	16cc
16FF#	.	16b
16D	.	16a
16EE	.	16g
16DJ	.	16bJ
=19	=19	=19
16CL	4e]	16aL
16BB	.	16bJ
16AA	.	[4cc
16C	.	.
16GG	8e	.
16CJ	.	.
16FF#L	4.d	16cc]L
16C	.	16b
16EE	.	16a
16C	.	16g
16DD	.	16f#
16CJ	.	16aJ
=20	=20	=20
8BBL	8dL	16gL
.	.	16aJ
8AA	16c	[4b
.	16d	.
8GGJ	16e	.
.	16dJ	.
8AAL	8cL	8b]L
8GG	16B	8e
.	16c	.
8FF#J	16d	[8aJ
.	16cJ	.
=21	=21	=21
16GGL	8BL	16a]L
16G	.	16g
16Fn	8c	8a
16E	.	.
16D	8dJ	8bJ
16FJ	.	.
16EL	8g	16ccL
16F	.	16dd
16E	4A	16cc
16D	.	16b
16C	.	16a
16EJ	.	16gJ
=22	=22	=22
16DL	8BL	8.f#mL
16E	.	.
16D	8c	.
16C	.	32e
.	.	32f#
16BB	8dJ	[8gJ
16DJ	.	.
16CL	8e	16g]L
16D	.	16b
16C	4F#	16a
16BB	.	16g
16AA	.	16f#
16CJ	.	16eJ
=23	=23	=23
16BBL	8GL	8d
16C	.	.
16BB	16G	8r
16AA	16A	.
16GG	16B	8r
16AAJ	16c#J	.
16BBL	8dL	4r
16C#	.	.
16D	16B	.
16E	16c#	.
16F#	16d	8r
16GJ	16eJ	.
=24	=24	=24
8F#L	8f#L	8aL
8B	8e	16g
.	.	16a
8BBJ	8d#J	16b
.	.	16aJ
8EL	8eL	8gL
8A	8dn	16f#
.	.	16g
8AAJ	8c#J	16a
.	.	16gJ
=25	=25	=25
8DL	8dL	8f#L
8E	16c#	8g
.	16B	.
[8F#J	16A	8aJ
.	16cnJ	.
8F#]L	16BL	8dd
.	16c	.
8G	16B	4eT
.	16A	.
8C#J	16G	.
.	16BJ	.
=26	=26	=26
8D	16AL	8f#L
.	16B	.
8r	16A	8g
.	16G	.
8r	16F#	8aJ
.	16AJ	.
4r	16GL	8b
.	16A	.
.	16G	4c#t
.	16F#	.
8r	16E	.
.	16GJ	.
=27	=27	=27
2.r	16F#L	8dL
.	16G	.
.	16F#	16d
.	16E	16e
.	16D	16f#
.	16EJ	16gJ
.	16F#L	8aL
.	16G	.
.	16A	16f#
.	16B	16g
.	16c	16a
.	16dJ	16bJ
=28	=28	=28
8DL	8F#L	4cc
16C	8a	.
16D	.	.
16E	[8gJ	8b
16DJ	.	.
8CL	8g]L	4.a
16BB	8g	.
16C	.	.
16D	8f#J	.
16CJ	.	.
=29	=29	=29
8BBL	8g	16gL
.	.	16gg
8C	8r	16ff#
.	.	16ee
8DJ	8r	16dd
.	.	16ff#J
8G	4r	16eeL
.	.	16ff#
4AA	.	16ee
.	.	16dd
.	8r	16cc
.	.	16eeJ
=30	=30	=30
8BBL	2.r	16ddL
.	.	16ee
8C	.	16dd
.	.	16cc
8DJ	.	16b
.	.	16ddJ
8E	.	16ccL
.	.	16dd
4FF#	.	16cc
.	.	16b
.	.	16a
.	.	16ccJ
=31	=31	=31
16GGL	8r	16bL
16AAJ	.	16a
[4BB	8r	16g
.	.	16b
.	8d	16f#
.	.	16bJ
16BB]L	8c#	16eL
16AA	.	16b
16GG	8r	16d
16FF#	.	16b
16EE	8r	16c#
16GGJ	.	16bJ
=32	=32	=32
16FF#L	8r	16aL
16GGJ	.	16g
[4AA	8r	16f#
.	.	16a
.	8c#	16e
.	.	16aJ
16AA]L	8B	16dL
16GG	.	16a
16FF#	8r	16c#
16EE	.	16a
16DD	8r	16B
16FF#J	.	16aJ
=33	=33	=33
16EEL	8r	16gL
16FF#J	.	16f#
[4GG	8r	16e
.	.	16g
.	8B	16d
.	.	16gJ
16GG]L	8A	16c#L
16FF#	.	16g
16EE	8r	16B
16DD	.	16g
16CC#	8r	16A
16EEJ	.	16gJ
=34	=34	=34
16DDL	2.r	16f#L
16EE	.	16dd
16FF#	.	16ccn
16DD	.	16b
16GG	.	16a
16DDJ	.	16gJ
16AAL	.	16f#L
16DD	.	16e
16BB	.	16d
16DD	.	16c
16C	.	16B
16DDJ	.	16AJ
=35	=35	=35
16BBL	2.r	16GL
16G	.	16A
16Fn	.	16B
16E	.	16G
16D	.	16c
16CJ	.	16GJ
16BBL	.	16dL
16AA	.	16G
16GG	.	16e
16FFn	.	16G
16EE	.	16fn
16DDJ	.	16GJ
=36	=36	=36
16CCL	2.r	16eL
16DD	.	16cc
16EE	.	16b
16FF#	.	16dd
16GG#	.	16a
16AAJ	.	16ddJ
16BBL	.	16g#L
16C	.	16dd
16D	.	16f#
16E	.	16dd
16F#	.	16e
16G#J	.	16ddJ
=37	=37	=37
16AL	2.r	16ccL
16Gn	.	16a
16F#	.	16b
16A	.	16cc#
16E	.	16dd#
16AJ	.	16eeJ
16D#L	.	16ff#L
16A	.	16gg
16C#	.	16aa
16A	.	16bb
16BB	.	16cccn
16AJ	.	16dd#J
=38	=38	=38
8GL	2.r	8eeL
8c	.	16ff#
.	.	16ee
8BJ	.	16dd#
.	.	16eeJ
8AL	.	8ff#L
8B	.	16gg
.	.	16ff#
8BBJ	.	16ee
.	.	16ff#J
=39	=39	=39
16EL	2.r	8ggL
16F#	.	.
16G	.	8ff#
16E	.	.
16A	.	8eeJ
16EJ	.	.
16BL	.	8b
16E	.	.
16c#	.	4aa
16E	.	.
16d#	.	.
16EJ	.	.
=40	=40	=40
8e	16eL	8ggL
.	16d#	.
8r	16e	8ff#
.	16f#	.
8r	16g	8eeJ
.	16eJ	.
4r	16f#L	8dd#
.	16e	.
.	16f#	4ccc
.	16g	.
8r	16a	.
.	16f#J	.
=41	=41	=41
2.r	8gL	8bbL
.	16a	16ccc
.	16g	16bb
.	16f#	16aa
.	16eJ	16ggJ
.	[4.a	8ff#L
.	.	16aa
.	.	16gg
.	.	16ff#
.	.	16eeJ
=42	=42	=42
2.r	16a]L	8dd#L
.	16g	.
.	16f#	8aa
.	16a	.
.	16e	8ggJ
.	16aJ	.
.	16d#L	8ff#L
.	16a	.
.	16c#	8ee
.	16a	.
.	16B	8dd#J
.	16aJ	.
=43	=43	=43
2.r	8gL	8eeL
.	16f#	8ddn
.	16g	.
.	16a	8ccJ
.	16gJ	.
.	8f#L	8ddL
.	16e	8cc
.	16f#	.
.	16g	8bJ
.	16f#J	.
=44	=44	=44
2.r	8eL	16ccL
.	.	16ccc
.	8f#	16bb
.	.	16aa
.	8gJ	16gg
.	.	16bbJ
.	8cc	16aaL
.	.	16bb
.	4d#	16aa
.	.	16gg
.	.	16ff#
.	.	16aaJ
=45	=45	=45
2.r	8eL	16ggL
.	.	16aa
.	8f#	16gg
.	.	16ff#
.	8gJ	16ee
.	.	16ggJ
.	8a	16ff#L
.	.	16gg
.	4B	16ff#
.	.	16ee
.	.	16dd#
.	.	16ff#J
=46	=46	=46
2.r	16cL	8eeL
.	16B	.
.	16A	16ff#
.	16B	16gg
.	16c	[8aaJ
.	16dJ	.
.	16eL	8aa]L
.	16d#	.
.	16e	16gg
.	16f#	16aa
.	16g	[8bbJ
.	16aJ	.
=47	=47	=47
16r	[4.b	8bb]L
32BBL	.	.
32C#	.	.
16D#	.	8aa
16BB	.	.
16E	.	8ggJ
16BBJ	.	.
16F#L	8b]L	16ff#L
16BB	.	16gg
16G	8cc	8aa
16BB	.	.
16A	8f#J	8dd#J
16BBJ	.	.
=48	=48	=48
16GL	16eL	4ee
16F#	16f#J	.
16E	[4g	.
16G	.	.
16D	.	8b
16GJ	.	.
16C#L	16g]L	[4.a
16G	16f#	.
16BB	16e	.
16G	16d	.
16AA	16c#	.
16GJ	16eJ	.
=49	=49	=49
16F#L	16dL	4a]
16E	16eJ	.
16D	[4f#	.
16F#	.	.
16C#	.	8a
16F#J	.	.
16BBL	16f#]L	[4.g
16F#	16e	.
16AA	16d	.
16F#	16c#	.
16GG	16B	.
16F#J	16dJ	.
=50	=50	=50
16EL	16c#L	4g]
16D	16dJ	.
16C#	[4e	.
16E	.	.
16BB	.	8g
16EJ	.	.
16AA#L	16e]L	[4.f#
16E	16d	.
16GG#	16c#	.
16E	16B	.
16FF#	16A#	.
16EJ	16c#J	.
=51	=51	=51
16DL	8B	16f#]L
16F#	.	16b
16E	8r	16cc#
16D	.	16b
16C#	8r	16a#
16BBJ	.	16bJ
16AA#L	4r	8cc#L
16C#	.	.
16BB	.	16dd
16AA#	.	16cc#
16GG#	8r	16b
16FF#J	.	16cc#J
=52	=52	=52
8BBL	2.r	8ddL
16C#	.	8cc#
16BB	.	.
16AA#	.	8bJ
16BBJ	.	.
8C#L	.	8a#
16D	.	4gg
16C#	.	.
16BB	.	.
16C#J	.	.
=53	=53	=53
8DL	2.r	8ff#L
8C#	.	16gg
.	.	16ff#
8BBJ	.	16ee
.	.	16ddJ
8AA#	.	8cc#L
4G	.	16ee
.	.	16dd
.	.	16cc#
.	.	16bJ
=54	=54	=54
16F#L	2.r	16a#L
16G#	.	16b
16A#	.	16cc#
16F#	.	16a#
16B	.	16dd
16F#J	.	16a#J
16c#L	.	16eeL
16F#	.	16a#
16d	.	16ff#
16F#	.	16a#
16e	.	16gg
16F#J	.	16a#J
=55	=55	=55
16dL	2.r	16ff#L
16F#	.	16a#
16G	.	16b
16d	.	16ff#
32c#	.	32ee
32B	.	32dd
32A#	.	32cc#
32BJ	.	32ddJ
16c#L	.	16eeL
16E	.	16g#
16F#	.	16a#
16c#	.	16ee
32B	.	32dd
32A#	.	32cc#
32G#	.	32b
32A#J	.	32cc#J
=56	=56	=56
8B	16BL	[2.dd
.	16c#	.
8r	16d	.
.	16B	.
8r	16e	.
.	16BJ	.
4r	16f#L	.
.	16B	.
.	16g#	.
.	16B	.
8BB	16a	.
.	16BJ	.
=57	=57	=57
16EL	8g#L	2.dd_
16F#	.	.
16G#	8e	.
16E	.	.
16A	8f#J	.
16EJ	.	.
16BL	8g#L	.
16E	.	.
16c#	8a	.
16E	.	.
16d	8bJ	.
16EJ	.	.
=58	=58	=58
8c#	8.eL	16dd]L
.	.	32f#
.	.	32g#
8r	.	16a
.	16d	16e
8r	16c#	16b
.	16BJ	16eJ
4r	16AL	16cc#L
.	16B	16e
.	16A	16dd
.	16Gn	16f#
8C#	16F#	16ee
.	16EJ	16gnJ
=59	=59	=59
8.DL	8D	16f#L
.	.	32g
.	.	32a
.	8r	16b
16E	.	16f#
16D	8r	16cc#
16C#J	.	16f#J
16BBL	4r	16ddL
16C#	.	16f#
16BB	.	16ee
16AA	.	16g
16GG	8r	16ff#
16FF#J	.	16aJ
=60	=60	=60
8EEL	4r	16gL
.	.	16f#
8D	.	16g
.	.	16b
8C#J	8r	16ee
.	.	16gJ
4D	8DL	16f#L
.	.	16b
.	16E	16a
.	16D	16cc#
8BB	16C#	[8ddJ
.	16DJ	.
=61	=61	=61
8GG	8EL	8dd]
4AA	16F#	4cc#
.	16E	.
.	16D	.
.	16EJ	.
8DL	8F#L	8ddL
8C#	8E	16ee
.	.	16dd
8BBJ	8DJ	16cc#
.	.	16ddJ
=62	=62	=62
[2.AA	8C#	8eeL
.	4B	16ff#
.	.	16ee
.	.	16dd
.	.	16eeJ
.	8AL	8ff#L
.	16B	16gg
.	16A	16ff#
.	16G	16ee
.	16F#J	16ddJ
=63	=63	=63
2.AA_	8EL	8cc#
.	16G	[4bb
.	16F#	.
.	16E	.
.	16DJ	.
.	4C#	16bb]L
.	.	16aa
.	.	16bb
.	.	16aa
.	[8D	16gg
.	.	16ff#J
=64	=64	=64
4.AA_	16D]L	[2.eeT
.	32G	.
.	32F#	.
.	16E	.
.	16G	.
.	16D	.
.	16GJ	.
4AA]	16C#L	.
.	16G	.
.	16BB	.
.	16G	.
8r	16AA	.
.	16GJ	.
=65	=65	=65
8r	16F#L	16ee]L
.	16GJ	32aa
.	.	32gg
16r	[4A	16ff#
16EL	.	16aa
16D	.	16ee
16C#J	.	16aaJ
4BB	16A]L	16ddL
.	16G	16aa
.	16F#	16cc#
.	16E	16aa
8r	16D	16b
.	16F#J	16aaJ
=66	=66	=66
8r	16EL	16ggL
.	16F#J	16ff#
16r	[4G	16ee
16DL	.	16gg
16C#	.	16dd
16BBJ	.	16ggJ
4AA	16G]L	16cc#L
.	16F#	16gg
.	16E	16b
.	16D	16gg
8r	16C#	16a
.	16EJ	16ggJ
=67	=67	=67
8r	16DL	16ff#L
.	16EJ	16ee
16r	[4F#	16dd
16C#L	.	16ff#
16BB	.	16cc#
16AAJ	.	16ff#J
8GG	16F#]L	16bL
.	16BB	16ff#
8r	16C#	16a
.	16D	16ff#
8r	16E	16g
.	16F#J	16ff#J
=68	=68	=68
4r	16GL	16eeL
.	16A	16dd
.	16G	16cc#
.	16F#	16ee
8r	16E	16b
.	16DJ	16eeJ
16r	8C#	16aL
16AAL	.	16ee
16BB	8r	16g
16C#	.	16ee
16D	8r	16f#
16EJ	.	16eeJ
=69	=69	=69
16F#L	2.r	16ddL
16G	.	16f#
8A	.	16e
.	.	16g
8AAJ	.	16dd
.	.	16cc#J
8DL	.	[4.ddT
16Cn	.	.
16D	.	.
16E	.	.
16DJ	.	.
=70	=70	=70
8CL	4r	2.dd_
16BB	.	.
16C	.	.
16D	8r	.
16CJ	.	.
8BBL	16r	.
.	16gL	.
8C	16fn	.
.	16e	.
8DJ	16d	.
.	16fJ	.
=71	=71	=71
8G	16eL	8dd]
.	16fn	.
4AA	16e	[4cc
.	16d	.
.	16c	.
.	16eJ	.
8BBL	16dL	8cc]
.	16e	.
8C	16d	[4b
.	16c	.
8DJ	16B	.
.	16dJ	.
=72	=72	=72
8E	16cL	8b]
.	16d	.
4FF#	16c	[4a
.	16B	.
.	16A	.
.	16cJ	.
8GGL	4.B	16a]L
.	.	16g
16FF#	.	16a
16GG	.	16g
16AA	.	16f#
16BBJ	.	16gJ
=73	=73	=73
8CCL	8A	16f#L
.	.	32d
.	.	32e
16c	8r	16f#
16B	.	16d
16A	8r	16g
16GJ	.	16dJ
16F#L	4r	16aL
16E	.	16d
16D	.	16b
16C	.	16d
16BB	8r	16cc
16AAJ	.	16dJ
=74	=74	=74
16GGL	2.r	16bL
16AA	.	16gg
16BB	.	16ffn
16GG	.	16ee
16C	.	16dd
16GGJ	.	16ccJ
16DL	.	16bL
16GG	.	16a
16E	.	16g
16GG	.	16fn
16Fn	.	16e
16GGJ	.	16dJ
=75	=75	=75
16EL	2.r	16cL
32EE	.	16ee
32FF#	.	.
16GG#	.	16dd
16EE	.	16cc
16AA	.	16b
16EEJ	.	16aJ
16BBL	.	16g#L
16EE	.	16f#
16C	.	16e
16EE	.	16d
16D	.	16c
16EEJ	.	16BJ
=76	=76	=76
16C#L	2.r	16AL
16A	.	16B
16G	.	16c#
16F#	.	16A
16E	.	16d
16DJ	.	16AJ
16C#L	.	16eL
16BB	.	16A
16AA	.	16f#
16GG	.	16A
16FF#	.	16g
16EEJ	.	16AJ
=77	=77	=77
[2.DD	8dL	8f#L
.	16cn	8b
.	16d	.
.	16e	8gJ
.	16dJ	.
.	8cL	8eL
.	16B	8a
.	16c	.
.	16d	8f#J
.	16cJ	.
=78	=78	=78
16DD]L	8BL	[4.g
16D	.	.
16C	8c	.
16D	.	.
16E	8dJ	.
16DJ	.	.
8CL	8e	16g]L
.	.	16a
16BB	4F#	8.aM
16C	.	.
16D	.	.
16CJ	.	32g
.	.	32aJ
=79	=79	=79
8BBL	8GL	8bL
16AA	16a	16cc
16BB	16g	16b
16C	16f#	16a
16BBJ	16gJ	16bJ
8AAL	8aL	8ccL
16GG	16b	16dd
16AA	16a	16cc
16BB	16g	16b
16AAJ	16aJ	16ccJ
=80	=80	=80
16GGL	8bL	8ddL
32G	.	.
32F#	.	.
16E	8a	8cc
16G	.	.
16D	[8gJ	8bJ
16GJ	.	.
16C#L	8g]L	8a
16A	.	.
16BB	8dd	4gg
16A	.	.
16AA	8cc#J	.
16AJ	.	.
=81	=81	=81
16DL	8ddL	8ff#L
16Cn	.	.
16BB	8g	8ee
16D	.	.
16AA	8f#J	8ddJ
16DJ	.	.
16GGL	8e	8cc#
16E	.	.
16FF#	4cc#	4bb-
16E	.	.
16EE	.	.
16EJ	.	.
=82	=82	=82
8FF#L	[4ccn	16aaL
.	.	16gg
8DD	.	16ff#
.	.	16ee
8GGJ	16cc]L	8ddJ
.	16ccJ	.
8EEL	8b	16r
.	.	8ggL
8CC	4a	.
.	.	16cc
8DDJ	.	16gg
.	.	16ff#J
=83	=83	=83
[4.GG	8bL	16ggL
.	.	32ff#
.	.	32ee
.	8b	16dd
.	.	16gg
.	8aJ	16cc
.	.	16ggJ
16GG]L	4g	8bL
32GG	.	.
32AA	.	.
16BB	.	8gg
16GG	.	.
16C	8f#	8aJ
[16GGJ	.	.
=84	=84	=84
*^	*	*^
!! Five-voice material until the end:
8DL	8GG]	8gL	16bL	2.r
.	.	.	32dd	.
.	.	.	32cc	.
8GG	[4GG	8g	16b	.
.	.	.	16dd	.
8BBJ	.	8fnJ	16a	.
.	.	.	16ddJ	.
32CL	4.GG_	4e	8g	.
32BB	.	.	.	.
32C	.	.	.	.
32D	.	.	.	.
16E	.	.	[4cc	.
16C	.	.	.	.
16F#	.	8e-	.	.
16CJ	.	.	.	.
=85	=85	=85	=85	=85
[2.G	2.GG_	8dL	32cc]L	4r
.	.	.	32g	.
.	.	.	32a	.
.	.	.	32b	.
.	.	8en	16cc	.
.	.	.	16g	.
.	.	8fnJ	16dd	8b
.	.	.	16gJ	.
.	.	8gL	32eeL	8cc
.	.	.	32b	.
.	.	.	32cc	.
.	.	.	32dd	.
.	.	8g	16ee	8r
.	.	.	16cc	.
.	.	8aJ	16ff#	8r
.	.	.	16ccJ	.
=86	=86	=86	=86	=86
2.G]	2.GG]	4b	[4gg	16r
.	.	.	.	16ddL
.	.	.	.	16ee
.	.	.	.	[16cc
.	.	8a	16gg]L	8cc]J
.	.	.	16ff#J	.
.	.	4.b	4.gg	4.dd
==	==	==	==	==
*-	*-	*-	*-	*-
!!!OTA: Das wohltemperirte Clavier
!!!OCY: Deutschland
!!!PPP: Coethen; Cothen
!!!ODT: <1722//
!!!PDT: 1722
!!!AFR: fuga; fugue
!!!AST: polyphony
!!!AMT: compound duple
!!!SCA: Bach-Werke-Verzeichnis
!!!YOR: Bach-Gesellschaft Ausgabe, Band 14
!!!YOO: Breitkopf und Härtel
!!!YOY: 1866
!!!YOE: Franz Kroll (1820-1877)
!!!AIN: cemba; clavi
!!!YEC: Copyright 1994, David Huron
!!!YEM: Rights to all derivative electronic formats reserved.
!!!ENC: David Huron
!!!END: 1986/11/21
!!!EED: David Huron
!!!YER: 1994/08/10
!!!EED2: Craig Stuart Sapp (notational niceties)
!!!EEV: 2020/09/19
!!!EFL: 15/48
